logos/FIDA_SOL.svg

<svg xmlns="http://www.w3.org/2000/svg" xmlns:xlink="http://www.w3.org/1999/xlink" width="244.8" height="244.8" viewBox="0 0 244.8 244.8">
  <defs>
    <clipPath id="clip-path">
      <path id="Path_472534" data-name="Path 472534" d="M0,0H121.345V121.345H0Z" fill="none"/>
    </clipPath>
  </defs>
  <g id="bonfida_solana" transform="translate(-3216.196 -6058.172)">
    <path id="Main_copy_10" d="M0,121.252C0,188.064,54.44,242.5,121.252,242.5S242.5,188.064,242.5,121.252,188.064,0,121.252,0,0,54.44,0,121.252Z" transform="translate(3217.444 6059.42)" fill="#4949ff"/>
    <g id="Main_copy_14" transform="translate(3216.196 6058.172)" fill="none">
      <path d="M0,122.4c0,67.444,54.954,122.4,122.4,122.4s122.4-54.954,122.4-122.4S189.841,0,122.4,0,0,54.954,0,122.4Z" stroke="none"/>
      <path d="M 122.4000015258789 11 C 60.97383117675781 11 11 60.97383117675781 11 122.4000015258789 C 11 183.826171875 60.97383117675781 233.8000030517578 122.4000015258789 233.8000030517578 C 183.826171875 233.8000030517578 233.8000030517578 183.826171875 233.8000030517578 122.4000015258789 C 233.8000030517578 60.97383117675781 183.826171875 11 122.4000015258789 11 M 122.4000015258789 0 C 189.8410034179688 0 244.8000030517578 54.95399475097656 244.8000030517578 122.4000015258789 C 244.8000030517578 189.8460083007813 189.8460083007813 244.8000030517578 122.4000015258789 244.8000030517578 C 54.95399475097656 244.8000030517578 0 189.843994140625 0 122.4000015258789 C 0 54.95399475097656 54.95899963378906 0 122.4000015258789 0 Z" stroke="none" fill="#1ae5ae"/>
    </g>
    <g id="bonfida.c59946c0" transform="translate(3277.923 6119.899)" clip-path="url(#clip-path)">
      <path id="Path_472533" data-name="Path 472533" d="M64.014.124,36.1,28.037-.056,64.187l.083,57.021,57.021.083L84.973,93.366l36.146-36.146.171-57.279ZM66.032,4.97l46.945-.14L86.395,31.412h-46.8Zm-34.8,34.8v46.8L4.874,112.93,4.8,66.2Zm23.8,76.667-46.729-.064L34.671,90.007h46.8L55.042,116.437ZM36.093,85.149V36.266H84.973V85.142H36.093Zm53.733-3.5V34.844L116.409,8.262l-.144,46.945Z" transform="translate(-0.156 -0.162)" fill="#fff"/>
    </g>
  </g>
</svg>

<?xml version="1.0" encoding="UTF-8" standalone="no"?>
<svg
   xmlns:dc="http://purl.org/dc/elements/1.1/"
   xmlns:cc="http://creativecommons.org/ns#"
   xmlns:rdf="http://www.w3.org/1999/02/22-rdf-syntax-ns#"
   xmlns:svg="http://www.w3.org/2000/svg"
   xmlns="http://www.w3.org/2000/svg"
   xmlns:sodipodi="http://sodipodi.sourceforge.net/DTD/sodipodi-0.dtd"
   xmlns:inkscape="http://www.inkscape.org/namespaces/inkscape"
   width="242.5"
   height="242.5"
   viewBox="0 0 242.5 242.5"
   version="1.1"
   id="svg15"
   sodipodi:docname="FIDA_SOL.svg"
   inkscape:version="1.0.2-2 (e86c870879, 2021-01-15)">
  <metadata
     id="metadata19">
    <rdf:RDF>
      <cc:Work
         rdf:about="">
        <dc:format>image/svg+xml</dc:format>
        <dc:type
           rdf:resource="http://purl.org/dc/dcmitype/StillImage" />
      </cc:Work>
    </rdf:RDF>
  </metadata>
  <sodipodi:namedview
     pagecolor="#ffffff"
     bordercolor="#666666"
     borderopacity="1"
     objecttolerance="10"
     gridtolerance="10"
     guidetolerance="10"
     inkscape:pageopacity="0"
     inkscape:pageshadow="2"
     inkscape:window-width="1920"
     inkscape:window-height="1017"
     id="namedview17"
     showgrid="false"
     inkscape:zoom="3.4722222"
     inkscape:cx="121.152"
     inkscape:cy="121.152"
     inkscape:window-x="-8"
     inkscape:window-y="-8"
     inkscape:window-maximized="1"
     inkscape:current-layer="bonfida_solana" />
  <defs
     id="defs4">
    <clipPath
       id="clip-path">
      <path
         id="Path_472534"
         data-name="Path 472534"
         d="M 0,0 H 121.345 V 121.345 H 0 Z"
         fill="none" />
    </clipPath>
  </defs>
  <g
     id="bonfida_solana"
     transform="translate(-3217.444,-6059.42)">
    <path
       id="Main_copy_10"
       d="M 0,121.252 C 0,188.064 54.44,242.5 121.252,242.5 188.064,242.5 242.5,188.064 242.5,121.252 242.5,54.44 188.064,0 121.252,0 54.44,0 0,54.44 0,121.252 Z"
       fill="#4949ff"
       transform="translate(3217.444,6059.42)" />
    <g
       id="bonfida.c59946c0"
       transform="translate(3277.923,6119.899)"
       clip-path="url(#clip-path)">
      <path
         id="Path_472533"
         data-name="Path 472533"
         d="M 64.014,0.124 36.1,28.037 -0.056,64.187 0.027,121.208 57.048,121.291 84.973,93.366 121.119,57.22 121.29,-0.059 Z M 66.032,4.97 112.977,4.83 86.395,31.412 h -46.8 z m -34.8,34.8 v 46.8 L 4.874,112.93 4.8,66.2 Z m 23.8,76.667 -46.729,-0.064 26.368,-26.366 h 46.8 l -26.429,26.43 z M 36.093,85.149 V 36.266 h 48.88 v 48.876 h -48.88 z m 53.733,-3.5 V 34.844 l 26.583,-26.582 -0.144,46.945 z"
         transform="translate(-0.156,-0.162)"
         fill="#fff" />
    </g>
  </g>
</svg>
